X:1
T:Ung vray musicien
T:Nicolle des Celliers de Hesdin
T:Source : Second livre contenant 25 chansons nouvelles à 4 parties---Paris---P.Attaignant---1536. Editor : André Vierendeels (26/1/17). 
T:Ung vray musicien
T:©
T:©
T:©
T:©
T:©
T:©
T:©
T:©
C:Nicolle des Celliers de Hesdin
Z:©
%%score [ 1 2 [ 3 4 ] ]
L:1/8
Q:1/4=120
M:2/2
K:F
V:1 treble nm="Soprano" snm="S"
V:2 treble nm="Alto" snm="A"
V:3 treble-8 nm="Tenor 1" snm="T 1"
V:4 treble-8 nm="Tenor 2" snm="T 2"
V:1
 z2 G2 GGGG | FEFG A4 | z4 z2 d2 | dddd cABc | d4 z2 D2 | DEFG AGAB | c2 z A BGBc | d3 c B2 A2- | %8
w: Ung vray mu- si- ci-|en beu- voit d'aul- tant,|ung|vray mu- si- ci- en beu- voit d'aul-|tant, ung|vray mu- si- ci- en beu- voit d'aul-|tant au- prez de sa doul-|cet- * * *|
 AG G4 F2 | G4 B2 BB | AGFE D4 | d2 dd cBAG | F G2 F G4 | z2 B3 B B2 | z2 GA BG d2 | A2 z2 AABc | %16
w: |te, la quel- l'en|chan- tant luy di- soit:|la quel- l'en chan- tant luy di-|* * * soit:|en- tou- nez,|ou- vrez la bou- chet-|te, ou- vrez la bou-|
 d2 G2 z2 G2- | GABG Bc d2 | G4 z4 | z4 z2 D2- | DEFD FG A2- | AG G4 F2 | G2 z F FFGF | GA B4 A2 | %24
w: chet- te, rain-|* cez tout de- dens et de-|hors,|rain-|* cez tout de- dens et de-||hors, ser- rez de- prez, moul-|* * lez les|
 B4 z2 B2- | BB B2 GABc | d2 A2 z2 d2 | d2 c2 d3 c | B2 B2 A4 | z8 | z2 A3 A G2 | A2 F2 D2 EF | %32
w: bords, haut|_ le cul por la me- re|gout- te, vous|n'a- vez gar- de|de noy- er,||si ne pleut,|dict el- te, il des-|
 G2 D2 z2 d2- | dd c2 d2 B2 | G2 z2 AB c2 | G2 z2 Bc d2 | A2 z2 B3 A | G4 F4 | z8 | z4 z2 A2- | %40
w: gout- te, si|_ ne pleut, dict el-|le, il des- gout-|te, il des- gout-|te, il des-|gout- te,||ve-|
 AB c2 G2 B2- | Bc d2 A4 | z8 | z2 A3 B c2 | G2 B3 A F2- | FG A3 G G2- |"^#" G2 F2 G4- | G8- | %48
w: * là bien bran- lé|_ le noy- er,||ve- là bien|bran- * * *|* * lé le noy-|* * er.|_|
 G8- | G8 |] %50
w: ||
V:2
 z2 G,2 G,A,B,C | DCDE F4 | z4 z2 D2 | DEFG AFGA | F2 G2 GGGG | F3 E D2 CB, | A,2 z F DCDE | %7
w: Ung vray mu- si- ci-|en beu- voit d'aul- tant,|ung|vray mu- si- ci- en beu- voit d'aul-|tant, ung vray mu- si- ci-|en beu- uvoit- d'aul- *|tant, au- prez de sa doul-|
 F2 D2 z4 | z A,B,C DC D2 | B,4 z4 | z4 D2 DD | DEFG A2 A,2 | A,A,DC B,A, G,2 | G3 G G2 z2 | %14
w: cet- te,|au- prez de sa doul- cet-|te,|la- quel- l'en|chan- tant luy di- soit, la|quel- l'en chan- tant luy di- soit:|en- tou- nez,|
 DDEF G2 F2 | z2 DE FD G2 | D2 z2 DDEF | G2 D2 z4 | z2 D3 EFD | FG A2 E2 z2 | z4 A,3 B, | %21
w: ou- vrez la bou- chet- te,|ou- vrez la bou- chet-|te, ou- vrez la bou-|chet- te,|rain- cez tout de-|dens et de- hors,|rain- cez|
 CA,B,C D2 A,2 | z8 | z4 z FFF | DCDE F2 z2 | G3 G G2 DE | FG A2 E2 DE | FG A2 D4 | z2 G2 G2 F2 | %29
w: tout de- dens et de- hors,||ser- rez de|prez mol- lez les bords|haut le cul por la|me- re gout- te, por la|me- re gou- te,|vous n'a- vez|
 GF ED E2 E2 | D2 z2 D3 D | C2 D2 B,2 A,2 | B,C D2 A,2 z2 | G3 G F2 G2 | E2 D2 z4 | EF G2 D2 z2 | %36
w: gar- * de _ de noy-|er, si ne|pleut, dict el- le,|il des- gout- te,|si ne pleut, dict|el- le,|il des gout- te,|
 A,B, CA,B,C D2- | D2 C2 D4 | z4 E3 F | G2 D2 F3 G | A2 E2 z4 | z4 A,3 B, | C2 G,2 B,3 C | %43
w: il des gout- * * * *|* * te,|ve- là|bien bran- lé le|noy- er,|ve- là|bien bran- é le|
 D2 A,2 z4 | z2 D3 E F2 | C2 F2 E2 C2 | D4 z2 E2- | EF G2 E2 D2 | E6 E2 | D8 |] %50
w: noy- er,|ve- là bien|bran- lé le noy-|er, ve-|* la bien bran- lé|le noy-|er.|
V:3
 z8 | z2 d2 dddd | cBcd ef g2- | ggfd e4 | d2 G2 GABc | dcde f2 z d | cAcc B2 GG | BABc d2 AA | %8
w: |Ung vray mu- si- ci-|en beu- voit d'aul- tant au- prez|_ de sa coul- cet-|te, ung vray mu- si- ci-|en beu- voit d'aul- tant, au-|prez de sa doul- cet- te,, au-|prez de sa doul- cet- te, au-|
 cBAG A4 | G4 g2 gg | fedc d4 | z4 c2 cc | dcBA G4 | z2 d3 d d2 | z8 | AABc d2 G2 | z2 GA BG c2 | %17
w: prez de sa doul- cet-|te, la- quel- l'en|chan- tant luy di- soit:|la- quel- l'en|chan- tant luy di- soit:|en- tou- nez,||ou- vrez la bou- chet- te,|ou- vrez la bou- chet-|
 G4 z2 G2- | GABG Bc d2 | A2 AB cABc | d2 A2 z4 | z4 z AAA | BABc d2 x2- | edcB c4 | B4 z2 d2- | %25
w: te, rain-|* cez tout de- dens et de-|hors, rain- cez tout de- dens et|de- hors,|ser- rez de|prez _ _ _ _ moul-|lez _ _ _ les|bords hau|
 dd d2 z2 d2- | dd d2 cABc | d2 A2 z4 | z8 | z2 d2 d2 c2 | d3 c B2 B2 | A2 d3 d c2 | d2 B2 A2 AA | %33
w: _ le cul, haut|_ le cul, por la me- re|gout- te,||vous n'a- vez|gar- de de noy-|er, si ne pleut,|dict el- le, il des-|
 B2 G2 z2 g2- | gg fg e2 c2 | z2 Bc d2 A2 | z2 G3 A B2- | B2 AG A2 d2- | de f2 c2 z2 | z4 d3 e | %40
w: gout- te, il|_ des gout- * * te-|il des- gout- te,|il des gout-|* * * te, il|_ des- gout- te,|ve- à|
 f2 c2 e3 f | g2 d2 z4 | z8 | z4 A3 B | c2 B2 d3 c | AB c3 BAG | A4 G4 | z2 G3 A B2 | G2 c3 c c2 | %49
w: bien bran- lé le|noy- er,||ve- là|bien bran- lé le|noy- * * * * *|* er,|ve- là bien|bran- lé le noy-|
 B8 |] %50
w: er.|
V:4
 z8 | z2 D2 DEFG | AGAB cABG | Bc d2 A2 z A | BGBc d2 G2 | z2 D2 DEFG | A2 F2 G2 G2 | D2 z2 z DFD | %8
w: |Ung vray mi- si- ci-|en beu- voit d'aul- tant au- prez de|sa doul- cet- te, au-|prez de sa doul- cet- te,|ung vray mu- si- ci-|en beu- voit d'aul-|tant, au- prz de|
 EF G2 D4 | G2 GG GABc | d2 A2 B2 G2 | B2 BB AGFE | D4 z2 G2- | GG G2 z2 GA | BG c2 G2 DE | %15
w: sa doul- cet- te,|la quel- l'en chan- tant luy di-|* * * soit:|la- quel- l'en chan- tant luy di-|soit: en-|* tou- nez, ou- vrez|la bou- chet te, ou- vrez|
 FD G2 D2 z2 | z8 | z2 G3 ABG | Bc d2 B2 D2- | DEFD EF G2 | D2 D3 EFD | EF G2 DDDD | GFGA B2 _E2 | %23
w: la bou- chet- te,||rain- cez tout de-|dans et de- hors, rain-|* cez tout de- dens et de-|hors, rain- cez tout de-|dens et de- hors, ser- rez de|prez _ _ _ _ moul-|
 G4 F4 | B,2 B3 B B2 | z2 G3 G G2 | DEFG A2 D2 | z4 z2 G2 | G2 G2 d3 c | B2 B2 A4 | z8 | z8 | %32
w: lez les|bords, haut le cul,|haut le cul,|pour le me- re gout- te,|vous|n'a- vez gar- de|de noy- er,|||
 z2 G3 G F2 | G2 E2 D2 z2 | GA B2 A2 AB | c2 G2 z2 DE | F2 C2 G3 F | _E4 D4 | z2 A3 B c2 | %39
w: si ne pleut,|dict el- le,|il des- gout- te, il des-|gout- te, il des-|gout- te, il des-|gout- te,|ve- là bien|
 G2 B3 c d2 | A4 z4 | z2 D3 E F2 | C2 E3 F G2 | D2 F3 G A2 | E2 G4 D2 | F3 E C2 E2 | D4 z2 C2- | %47
w: bran- lé le noy-|er,|ve- là bien|bran- lé le noy-|ern ve- la bien|bran- lé le|noy- * * *|er, ve-|
 CD E2 C2 G2 | C6 C2 | G8 |] %50
w: * la bien bran- lé|le noy-|er.|

